!!!COM:	Bach, Johann Sebastian
!!!CDT:	1685/02/21/-1750/07/28/
!!!OTL@@DE:	Die Nacht ist kommen
!!!SCT:	BWV 296
!!!PC#:	231
!!!AGN:	chorale
**kern	**kern	**kern	**kern
*ICvox	*ICvox	*ICvox	*ICvox
*Ibass	*Itenor	*Ialto	*Isoprn
*I"Bass	*I"Tenor	*I"Alto	*I"Soprano
*clefF4	*clefGv2	*clefG2	*clefG2
*k[]	*k[]	*k[]	*k[]
*G:mix	*G:mix	*G:mix	*G:mix
*M4/4	*M4/4	*M4/4	*M4/4
*met(c)	*met(c)	*met(c)	*met(c)
*MM100	*MM100	*MM100	*MM100
4G	4B	4d	4g
=1	=1	=1	=1
4F#	4A	4d	4a
4F	4G	4d	4b
4E	4G	4e	2cc
4F#	4A	4d	.
=2	=2	=2	=2
2G;	2G;	2d;	2b;
4C#	4G	4e	4a
[4D	8FnXL	8dL	4a
.	8EJ	8cnXJ	.
=3	=3	=3	=3
4D]	4E	4B	4g#
4C	8EL	4e	4a
.	8AJ	.	.
4D	4A	4f	2b
4E	4G#	8eL	.
.	.	8dJ	.
=4	=4	=4	=4
2AA;	2A;	2c;	2a;
4r	4ry	4ry	4r
4A	4e	4a	4cc
=5	=5	=5	=5
4E	8eL	8gL	4cc
.	8dJ	8fJ	.
4C	4e	[4g	8ccL
.	.	.	8bJ
8FL	8cL	8gL]	2a
8G	8c#J	16fL	.
.	.	16eJJ	.
8F	8dL	8fL	.
8EJ	8eJ	8gJ	.
=6	=6	=6	=6
2D;	2f;	2a;	2dd;
4r	4ry	4ry	4r
8GL	4d	4g	4b
8FJ	.	.	.
=7	=7	=7	=7
4E	4e	4g	4cc
4F#	4d	[4a	4a
4G	4.d	8a]	4b
.	.	4g	.
4D	.	.	4a
.	8c	8f#	.
=8	=8	=8	=8
2GG;	2B;	2d;	2g;
4r	4ry	4ry	4r
4G	4B	4g	4dd
=9	=9	=9	=9
4F#	4A	8aL	4dd
.	.	8dJ	.
8GL	4B	[4g	4dd
8FJ	.	.	.
8EL	2c	8gL]	2cc
8D	.	8f	.
8E	.	8g	.
8CJ	.	8eJ	.
=10	=10	=10	=10
2F;	2c;	2f;	2a;
4r	4ry	4ry	4r
4E	4e	4g	4cc
=11	=11	=11	=11
4F#	4d	4.a	4cc
4G	4d	.	4b
.	.	8g	.
4C	8eL	4g	8ccL
.	8dJ	.	8bJ
4C#	4e	4g	4a
=12	=12	=12	=12
2D;	2d;	2f#;	2a;
4r	4ry	4ry	4r
4BB	4D	[4g	4dd
=13	=13	=13	=13
4E	8GL	8gL]	4cc
.	8AJ	8f#J	.
8DL	8BL	4g	4b
8CJ	8eJ	.	.
4D	8A	4g	2a
.	4d	.	.
4DD	.	4f#	.
.	8c	.	.
=14	=14	=14	=14
1GG;	1B;	1d;	1g;
==	==	==	==
*-	*-	*-	*-
!!!hum2abc: -Q ''
!!!title: @{PC#}. @{OTL@@DE}
!!!YOR1: 371 vierstimmige Choralges&auml;nge von Johann Sebastian Bach, 
!!!YOR2: 4th ed. by Alfred D&ouml;rffel (Leipzig: Breitkopf und H&auml;rtel, 
!!!YOR2: c.1875). 178 pp. Plate "V.A.10".  reprint: J.S. Bach, 371 Four-Part 
!!!YOR4: Chorales (New York: Associated Music Publishers, Inc., c.1940).
!!!SMS: B&H, 4th ed, Alfred D&ouml;rffel, c.1875, plate V.A.10
!!!EED:  Craig Stuart Sapp
!!!EEV:  2009/05/22
